Papirus/48x48/apps/julia.svg

<svg width="48" height="48" version="1.1" xmlns="http://www.w3.org/2000/svg">
 <circle cx="13" cy="35" r="9" style="opacity:.2"/>
 <circle cx="13" cy="34" r="9" style="fill:#c2352a"/>
 <circle cx="13" cy="35" r="6" style="opacity:.2"/>
 <circle cx="13" cy="34" r="6" style="fill:#e67a73"/>
 <path d="m13 28.000001c-3.3137086 0-6.0000002 2.686291-6 6 7.126e-4 0.154778 0.00741 0.309469 0.020089 0.463728 0.2070798-3.151424 2.8216933-5.459951 5.979911-5.463729 3.133025 0.0011 5.737765 2.269762 5.97991 5.393416 0.011-0.130883 0.0177-0.262092 0.02009-0.393415 0-3.313709-2.686291-6-6-6z" style="fill:#ffffff;opacity:.1"/>
 <path d="m 13,25 c -4.9705627,0 -9,4.029437 -9,9 0.00101,0.192237 0.00817,0.384393 0.021484,0.576172 C 4.2475851,29.780161 8.1986659,26.006135 13,26 c 4.745699,0.0016 8.674701,3.687863 8.978516,8.423828 C 21.989008,34.28274 21.996171,34.141425 22,34 22,29.029437 17.970563,25 13,25 Z" style="fill:#ffffff;opacity:.2"/>
 <circle cx="24" cy="16" r="9" style="opacity:.2"/>
 <circle cx="24" cy="15" r="9" style="fill:#46a249"/>
 <circle cx="24" cy="16" r="6" style="opacity:.2"/>
 <circle cx="24" cy="15" r="6" style="fill:#7bde7f"/>
 <path d="m24 9c-3.313709 0-6 2.686291-6 6 7.13e-4 0.154778 0.0074 0.309469 0.02009 0.463728 0.20708-3.151423 2.821693-5.459949 5.97991-5.463728 3.133025 0.0011 5.737765 2.269761 5.97991 5.393415 0.011-0.130883 0.0177-0.262092 0.02009-0.393415 0-3.313709-2.686291-6-6-6z" style="fill:#ffffff;opacity:.2"/>
 <path d="m 24,6 a 9,9 0 0 0 -9,9 9,9 0 0 0 0.02148,0.576172 A 9,9 0 0 1 24,7 9,9 0 0 1 32.978516,15.423828 9,9 0 0 0 33,15 9,9 0 0 0 24,6 Z" style="fill:#ffffff;opacity:.2"/>
 <circle cx="35" cy="35" r="9" style="opacity:.2"/>
 <circle cx="35" cy="34" r="9" style="fill:#8e53ab"/>
 <circle cx="35" cy="35" r="6" style="opacity:.2"/>
 <circle cx="35" cy="34" r="6" style="fill:#ba96cc"/>
 <path d="m35 28c-3.313708 0-6 2.686292-6 6 7.13e-4 0.154777 0.0074 0.309469 0.02009 0.463728 0.207079-3.151423 2.821692-5.459949 5.97991-5.463728 3.133025 0.0011 5.737765 2.269761 5.97991 5.393415 0.011-0.130883 0.0177-0.262092 0.02009-0.393415 0-3.313708-2.686292-6-6-6z" style="fill:#ffffff;opacity:.2"/>
 <path d="m 35,25 a 9,9 0 0 0 -9,9 9,9 0 0 0 0.02148,0.576172 A 9,9 0 0 1 35,26 9,9 0 0 1 43.978516,34.423828 9,9 0 0 0 44,34 9,9 0 0 0 35,25 Z" style="fill:#ffffff;opacity:.2"/>
</svg>

<svg xmlns="http://www.w3.org/2000/svg" width="48" height="48" version="1.1">
 <circle style="opacity:0.2" cx="13" cy="35" r="9"/>
 <circle style="fill:#c2352a" cx="13" cy="34" r="9"/>
 <circle style="opacity:0.2" cx="13" cy="35" r="6"/>
 <circle style="fill:#e67a73" cx="13" cy="34" r="6"/>
 <circle style="opacity:0.2" cx="24" cy="16" r="9"/>
 <circle style="fill:#46a249" cx="24" cy="15" r="9"/>
 <circle style="opacity:0.2" cx="24" cy="16" r="6"/>
 <circle style="fill:#7bde7f" cx="24" cy="15" r="6"/>
 <circle style="opacity:0.2" cx="35" cy="35" r="9"/>
 <circle style="fill:#8e53ab" cx="35" cy="34" r="9"/>
 <circle style="opacity:0.2" cx="35" cy="35" r="6"/>
 <circle style="fill:#ba96cc" cx="35" cy="34" r="6"/>
 <path style="fill:#ffffff;opacity:0.1" d="M 35,25 A 9,9 0 0 0 26,34 9,9 0 0 0 26.021,34.576 9,9 0 0 1 35,26 9,9 0 0 1 43.979,34.424 9,9 0 0 0 44,34 9,9 0 0 0 35,25 Z M 35,28 C 31.686,28 29,30.686 29,34 29.001,34.155 29.007,34.309 29.02,34.464 29.227,31.312 31.842,29.004 35,29 38.133,29.001 40.738,31.27 40.98,34.393 40.991,34.263 40.998,34.131 41,34 41,30.686 38.314,28 35,28 Z M 24,6 A 9,9 0 0 0 15,15 9,9 0 0 0 15.021,15.576 9,9 0 0 1 24,7 9,9 0 0 1 32.979,15.424 9,9 0 0 0 33,15 9,9 0 0 0 24,6 Z M 24,9 C 20.686,9 18,11.686 18,15 18.001,15.155 18.007,15.309 18.02,15.464 18.227,12.312 20.842,10.004 24,10 27.133,10.001 29.738,12.27 29.98,15.393 29.991,15.263 29.998,15.131 30,15 30,11.686 27.314,9 24,9 Z M 13,25 C 8.0294,25 4,29.029 4,34 4.001,34.192 4.0082,34.384 4.0215,34.576 4.2476,29.78 8.1987,26.006 13,26 17.746,26.002 21.675,29.688 21.979,34.424 21.989,34.283 21.996,34.141 22,34 22,29.029 17.971,25 13,25 Z M 13,28 C 9.6863,28 7,30.686 7,34 7.0007,34.155 7.0074,34.309 7.0201,34.464 7.2272,31.312 9.8418,29.004 13,29 16.133,29.001 18.738,31.27 18.98,34.393 18.991,34.263 18.998,34.131 19,34 19,30.686 16.314,28 13,28 Z"/>
</svg>
